X:513
T:Jill's Jig
C:Jill Lawrence, 1976.  Chords by Colin Hume, 2022.
L:1/8
M:6/8
R:Jig
S:Colin Hume's website,  colinhume.com  - chords can also be printed below the stave.
Q:3/8=112
K:C
P:A
|: E | "C"G2G GEG | "Am"c2c cBc | "G7"d2d dcd | "C"ege "Am"cAE |\
"C"G2G GEG | "F"A2A AFA | "G7"GAG FED | "C"C3 C2 :|
P:B
|: G | "C"c3 "Dm"d3 | "C"ege "F"cAF | "C"G2G c2c | "G7"dfe BAG |\
"C"c3 "Dm"d3 | "G7"BAG "C"c2d | "Am"edc "G7"dcB | "C"c3 c2 :|

